src/staging/static/icons/parking.svg

<svg enable-background="new 0 0 283.141 282.438" height="282.438" viewBox="0 0 283.141 282.438" width="283.141" xmlns="http://www.w3.org/2000/svg"><path d="m283.141 18.453c0-10.187-8.266-18.453-18.485-18.453h-246.156c-10.219 0-18.5 8.266-18.5 18.453v245.516c0 10.188 8.281 18.469 18.5 18.469h246.156c10.219 0 18.484-8.281 18.484-18.469v-245.516z" fill="#4d5f85"/><path d="m148.562 47.797c35.023 0 63.359 28.359 63.359 63.328 0 35.047-28.336 63.406-63.359 63.406l-40.781-.047v60.156h-36.547v-186.843zm.571 90.656c15.5 0 28.016-12.547 28.016-28.016 0-15.531-12.516-28.094-28.016-28.094l-41.352-.047v56.156h41.352z" fill="#fff"/></svg>

<?xml version="1.0" encoding="utf-8"?>
<!-- Generator: Adobe Illustrator 17.0.0, SVG Export Plug-In . SVG Version: 6.00 Build 0)  -->
<!DOCTYPE svg PUBLIC "-//W3C//DTD SVG 1.1//EN" "http://www.w3.org/Graphics/SVG/1.1/DTD/svg11.dtd">
<svg version="1.1" xmlns="http://www.w3.org/2000/svg" xmlns:xlink="http://www.w3.org/1999/xlink" x="0px" y="0px"
	 width="283.141px" height="282.438px" viewBox="0 0 283.141 282.438" enable-background="new 0 0 283.141 282.438"
	 xml:space="preserve">
<g id="Background">
	<path display="none" fill="#FFFFFF" d="M289.25,263.906c0,13.594-11.031,24.641-24.641,24.641H18.547
		c-13.609,0-24.641-11.047-24.641-24.641V18.516c0-13.594,11.031-24.625,24.641-24.625h246.062
		c13.609,0,24.641,11.031,24.641,24.625V263.906z M283.141,18.453C283.141,8.266,274.875,0,264.656,0H18.5C8.281,0,0,8.266,0,18.453
		v245.516c0,10.188,8.281,18.469,18.5,18.469h246.156c10.219,0,18.484-8.281,18.484-18.469V18.453z"/>
	<path fill="#4D5F85" d="M283.141,18.453C283.141,8.266,274.875,0,264.656,0H18.5C8.281,0,0,8.266,0,18.453v245.516
		c0,10.188,8.281,18.469,18.5,18.469h246.156c10.219,0,18.484-8.281,18.484-18.469V18.453z"/>
	<path display="none" fill="none" stroke="#231F20" stroke-width="0.9992" d="M289.25,263.906c0,13.594-11.031,24.641-24.641,24.641
		H18.547c-13.609,0-24.641-11.047-24.641-24.641V18.516c0-13.594,11.031-24.625,24.641-24.625h246.062
		c13.609,0,24.641,11.031,24.641,24.625V263.906z"/>
</g>
<g id="Parking_1_">
	<path fill="#FFFFFF" d="M148.562,47.797c35.023,0,63.359,28.359,63.359,63.328c0,35.047-28.336,63.406-63.359,63.406l-40.781-0.047
		v60.156H71.234V47.797H148.562z M149.133,138.453c15.5,0,28.016-12.547,28.016-28.016c0-15.531-12.516-28.094-28.016-28.094
		l-41.352-0.047v56.156H149.133z"/>
</g>
</svg>
